X:1
T:The Soldier's Cloak -- Jig
R:jig
B:Ryan's Mammoth Collection
N: 87 450
Z: Contributed by Ray Davies,  ray:davies99.freeserve.co.uk
M:6/8
L:1/8
K:D
vABA AFA | (d2e) (f2d) | "4"ecA AGF | G3 "^tr"T(E2G) |
ABA AFA | (d2e) (f2d) | "4"ecA ABc |1 d3 dcB :|2 d3 (d2g) |]
vfef def | "^tr"Tg3  (f/g/a)f | ecA AGF | G3  "^tr"T(E2G) |
ABA AFA | (d2e) (f2d) | "4"ecA ABc |1 d3 (d2g) :|2 "tr"Td3 dcB |]
